chrome/icons/import.svg

<svg height="16" viewBox="0 128 1024 704" width="16" xmlns="http://www.w3.org/2000/svg" xmlns:xlink="http://www.w3.org/1999/xlink">
  <path d="M1024,160L1024,800C1024,808.667 1020.83,816.167 1014.5,822.5C1008.17,828.833 1000.67,832 992,832C983.333,832 975.833,828.833 969.5,822.5C963.167,816.167 960,808.667 960,800L960,160C960,151.333 963.167,143.833 969.5,137.5C975.833,131.167 983.333,128 992,128C1000.67,128 1008.17,131.167 1014.5,137.5C1020.83,143.833 1024,151.333 1024,160ZM896,480C896,485 895.083,489.333 893.25,493C891.417,496.667 888.667,500.333 885,504L598.5,790.5C592.167,796.833 584.667,800 576,800C567.333,800 559.833,796.833 553.5,790.5C547.167,784.167 544,776.667 544,768C544,759.333 547.167,751.833 553.5,745.5L786.5,512L32,512C23.3333,512 15.8333,508.833 9.5,502.5C3.16667,496.167 0,488.667 0,480C0,471.333 3.16667,463.833 9.5,457.5C15.8333,451.167 23.3333,448 32,448L786.5,448L553.5,214.5C547.167,208.167 544,200.667 544,192C544,183.333 547.167,175.833 553.5,169.5C559.833,163.167 567.333,160 576,160C584.667,160 592.167,163.167 598.5,169.5L885,456C888.667,459.667 891.417,463.333 893.25,467C895.083,470.667 896,475 896,480Z" fill="context-fill" fill-opacity="context-fill-opacity">
  </path>
</svg>

<svg xmlns="http://www.w3.org/2000/svg" width="16" height="16" viewBox="0 128 1024 704"><path fill="context-fill" fill-opacity="context-fill-opacity" d="M1024 160v640c0 8.667-3.17 16.167-9.5 22.5q-9.495 9.5-22.5 9.5-13 0-22.5-9.5T960 800V160q0-13 9.5-22.5T992 128q13.005 0 22.5 9.5c6.33 6.333 9.5 13.833 9.5 22.5M896 480q0 7.5-2.75 13T885 504L598.5 790.5Q589 800 576 800t-22.5-9.5T544 768t9.5-22.5l233-233.5H32q-13 0-22.5-9.5T0 480t9.5-22.5T32 448h754.5l-233-233.5Q544 205 544 192t9.5-22.5T576 160t22.5 9.5L885 456q5.5 5.5 8.25 11t2.75 13"/></svg>
